;FLAVOR:Marlin
;TIME:2079
;Filament used: 6.2077m
;Layer height: 0.3
;Generated with Cura_SteamEngine master
M82 ;absolute extrusion mode
M190 S60 ; set the bed temperature and wait until hot
M109 S195.0; set the extruder temperature and wait until hot
G21;(metric values)
G90;(absolute positioning)
M82;(set extruder to absolute mode)
M107;(start with the fan off)
G28;(Home)
G29 C-0.8 Z0.40;(Level the bed.)
G1 X55 Y0 Z5 F3000;(Move to the outside of the bed.)
G92 E0;(reset extrusion distance)
G1 E5 F500;(Prime.)
G1 Z0;(Down to printing height.)
G2 X0 Y55 I-55 J0 E20 F3000;(Draw a priming arc.)
G1 E15 F5000;(Small retract)
G92 E0;(zero the extruded length)
G92 E0
G1 F3900 E-2.5
;LAYER_COUNT:49
;LAYER:0
M107
G0 F3600 X26.991 Y-26.215 Z0.3
;TYPE:SKIRT
G1 F1950 E0
G1 F4500 X27.571 Y-26.175 E0.02538
G1 X28.139 Y-26.056 E0.05071
G1 X28.686 Y-25.86 E0.07608
G1 X29.201 Y-25.591 E0.10144
G1 X29.674 Y-25.253 E0.12682
G1 X30.097 Y-24.854 E0.15221
G1 X30.46 Y-24.401 E0.17755
G1 X30.758 Y-23.902 E0.20292
G1 X30.985 Y-23.367 E0.22829
G1 X31.136 Y-22.806 E0.25365
G1 X31.216 Y-21.99 E0.28944
G1 X31.216 Y21.991 E2.20939
G1 X31.176 Y22.571 E2.23477
G1 X31.057 Y23.139 E2.2601
G1 X30.861 Y23.686 E2.28546
G1 X30.592 Y24.201 E2.31083
G1 X30.254 Y24.674 E2.33621
G1 X29.855 Y25.097 E2.36159
G1 X29.402 Y25.46 E2.38693
G1 X28.903 Y25.758 E2.4123
G1 X28.369 Y25.985 E2.43763
G1 X27.808 Y26.136 E2.463
G1 X26.991 Y26.216 E2.49883
G1 X-26.991 Y26.216 E4.85536
G1 X-27.571 Y26.176 E4.88074
G1 X-28.139 Y26.057 E4.90607
G1 X-28.686 Y25.861 E4.93144
G1 X-29.201 Y25.592 E4.9568
G1 X-29.674 Y25.254 E4.98218
G1 X-30.097 Y24.855 E5.00756
G1 X-30.46 Y24.402 E5.0329
G1 X-30.758 Y23.903 E5.05828
G1 X-30.985 Y23.369 E5.08361
G1 X-31.136 Y22.808 E5.10897
G1 X-31.216 Y21.991 E5.1448
G1 X-31.216 Y-21.991 E7.06479
G1 X-31.176 Y-22.571 E7.09017
G1 X-31.057 Y-23.139 E7.1155
G1 X-30.861 Y-23.686 E7.14087
G1 X-30.592 Y-24.201 E7.16623
G1 X-30.254 Y-24.674 E7.19161
G1 X-29.855 Y-25.097 E7.217
G1 X-29.402 Y-25.46 E7.24234
G1 X-28.903 Y-25.758 E7.26771
G1 X-28.369 Y-25.985 E7.29304
G1 X-27.808 Y-26.136 E7.3184
G1 X-26.991 Y-26.216 E7.35424
G1 X26.383 Y-26.215 E9.68422
G0 F4050 X26.991 Y-26.215
G0 F3600 X26.991 Y-25.865
G1 F1950 E9.71076
G1 F4500 X27.546 Y-25.825 E9.73505
G1 X28.09 Y-25.706 E9.75936
G1 X28.61 Y-25.51 E9.78362
G1 X29.098 Y-25.242 E9.80793
G1 X29.542 Y-24.907 E9.83221
G1 X29.933 Y-24.511 E9.8565
G1 X30.264 Y-24.064 E9.88078
G1 X30.528 Y-23.574 E9.90508
G1 X30.718 Y-23.051 E9.92937
G1 X30.831 Y-22.506 E9.95367
G1 X30.866 Y-21.99 E9.97624
G1 X30.866 Y21.991 E11.89619
G1 X30.826 Y22.546 E11.92048
G1 X30.707 Y23.09 E11.94479
G1 X30.511 Y23.61 E11.96905
G1 X30.243 Y24.098 E11.99335
G1 X29.908 Y24.542 E12.01763
G1 X29.512 Y24.933 E12.04192
G1 X29.065 Y25.264 E12.0662
G1 X28.575 Y25.528 E12.0905
G1 X28.052 Y25.718 E12.11479
G1 X27.507 Y25.831 E12.13909
G1 X26.991 Y25.866 E12.16167
G1 X-26.991 Y25.866 E14.51819
G1 X-27.546 Y25.826 E14.54248
G1 X-28.09 Y25.707 E14.56679
G1 X-28.61 Y25.511 E14.59105
G1 X-29.098 Y25.243 E14.61536
G1 X-29.542 Y24.908 E14.63964
G1 X-29.933 Y24.512 E14.66393
G1 X-30.264 Y24.065 E14.68821
G1 X-30.528 Y23.575 E14.71251
G1 X-30.718 Y23.052 E14.7368
G1 X-30.831 Y22.507 E14.7611
G1 X-30.866 Y21.991 E14.78367
G1 X-30.866 Y-21.991 E16.70366
G1 X-30.826 Y-22.546 E16.72795
G1 X-30.707 Y-23.09 E16.75226
G1 X-30.511 Y-23.61 E16.77652
G1 X-30.243 Y-24.098 E16.80082
G1 X-29.908 Y-24.542 E16.82511
G1 X-29.512 Y-24.933 E16.8494
G1 X-29.065 Y-25.264 E16.87368
G1 X-28.575 Y-25.528 E16.89798
G1 X-28.052 Y-25.718 E16.92227
G1 X-27.507 Y-25.831 E16.94657
G1 X-26.991 Y-25.866 E16.96914
G1 X26.383 Y-25.865 E19.29913
G0 F4050 X26.991 Y-25.865
G0 F3600 X26.991 Y-25.515
G1 F1950 E19.32567
G1 F4500 X27.52 Y-25.475 E19.34883
G1 X28.037 Y-25.356 E19.37199
G1 X28.531 Y-25.161 E19.39517
G1 X28.989 Y-24.894 E19.41831
G1 X29.403 Y-24.561 E19.44151
G1 X29.761 Y-24.17 E19.46465
G1 X30.057 Y-23.729 E19.48784
G1 X30.283 Y-23.249 E19.511
G1 X30.435 Y-22.741 E19.53414
G1 X30.516 Y-21.99 E19.56712
G1 X30.516 Y21.991 E21.48706
G1 X30.476 Y22.52 E21.51022
G1 X30.357 Y23.037 E21.53338
G1 X30.162 Y23.531 E21.55656
G1 X29.895 Y23.989 E21.57971
G1 X29.562 Y24.403 E21.6029
G1 X29.171 Y24.761 E21.62604
G1 X28.73 Y25.057 E21.64923
G1 X28.25 Y25.283 E21.67239
G1 X27.742 Y25.435 E21.69554
G1 X26.991 Y25.516 E21.72851
G1 X-26.991 Y25.516 E24.08504
G1 X-27.52 Y25.476 E24.1082
G1 X-28.037 Y25.357 E24.13136
G1 X-28.531 Y25.162 E24.15454
G1 X-28.989 Y24.895 E24.17768
G1 X-29.403 Y24.562 E24.20088
G1 X-29.761 Y24.171 E24.22402
G1 X-30.057 Y23.73 E24.2472
G1 X-30.283 Y23.25 E24.27036
G1 X-30.435 Y22.742 E24.29351
G1 X-30.516 Y21.991 E24.32649
G1 X-30.516 Y-21.991 E26.24647
G1 X-30.476 Y-22.52 E26.26963
G1 X-30.357 Y-23.037 E26.29279
G1 X-30.162 Y-23.531 E26.31598
G1 X-29.895 Y-23.989 E26.33912
G1 X-29.562 Y-24.403 E26.36231
G1 X-29.171 Y-24.761 E26.38546
G1 X-28.73 Y-25.057 E26.40864
G1 X-28.25 Y-25.283 E26.4318
G1 X-27.742 Y-25.435 E26.45495
G1 X-26.991 Y-25.516 E26.48792
G1 X26.383 Y-25.515 E28.81791
G0 F4050 X26.991 Y-25.515
G0 F3600 X26.991 Y-25.165
G1 F1950 E28.84445
G1 F4500 X27.493 Y-25.125 E28.86643
G1 X27.982 Y-25.006 E28.8884
G1 X28.447 Y-24.812 E28.9104
G1 X28.875 Y-24.546 E28.9324
G1 X29.255 Y-24.216 E28.95437
G1 X29.579 Y-23.83 E28.97637
G1 X29.837 Y-23.398 E28.99833
G1 X30.024 Y-22.93 E29.02033
G1 X30.134 Y-22.439 E29.0423
G1 X30.166 Y-21.99 E29.06195
G1 X30.166 Y21.991 E30.98189
G1 X30.126 Y22.493 E31.00388
G1 X30.007 Y22.982 E31.02585
G1 X29.813 Y23.447 E31.04784
G1 X29.547 Y23.875 E31.06984
G1 X29.217 Y24.255 E31.09181
G1 X28.831 Y24.578 E31.11378
G1 X28.399 Y24.837 E31.13577
G1 X27.931 Y25.024 E31.15777
G1 X27.44 Y25.134 E31.17973
G1 X26.991 Y25.166 E31.19939
G1 X-26.991 Y25.166 E33.55591
G1 X-27.493 Y25.126 E33.5779
G1 X-27.982 Y25.007 E33.59986
G1 X-28.447 Y24.813 E33.62186
G1 X-28.875 Y24.547 E33.64386
G1 X-29.255 Y24.217 E33.66583
G1 X-29.578 Y23.831 E33.6878
G1 X-29.837 Y23.399 E33.70979
G1 X-30.024 Y22.931 E33.73179
G1 X-30.134 Y22.44 E33.75375
G1 X-30.166 Y21.991 E33.7734
G1 X-30.166 Y-21.991 E35.69339
G1 X-30.126 Y-22.493 E35.71538
G1 X-30.007 Y-22.982 E35.73735
G1 X-29.813 Y-23.447 E35.75934
G1 X-29.547 Y-23.875 E35.78134
G1 X-29.217 Y-24.255 E35.80331
G1 X-28.831 Y-24.578 E35.82528
G1 X-28.399 Y-24.837 E35.84727
G1 X-27.931 Y-25.024 E35.86927
G1 X-27.44 Y-25.134 E35.89123
G1 X-26.991 Y-25.166 E35.91088
G1 X26.383 Y-25.165 E38.24087
G0 F4050 X26.991 Y-25.165
G1 F3900 E35.74087
G1 F12000 Z1.3
;MESH:MotorMount-2.stl
G0 F3600 X5.673 Y-17.871 Z1.3
;TYPE:WALL-INNER
G1 F12000 Z0.3
G1 F1950 E38.26741
G1 F4500 X5.673 Y-15.629 E38.36528
G1 X7.426 Y-14.232 E38.46314
G1 X9.61 Y-14.73 E38.56092
G1 X10.583 Y-16.75 E38.6588
G1 X9.61 Y-18.77 E38.75668
G1 X7.426 Y-19.268 E38.85447
G1 X6.148 Y-18.25 E38.92579
G0 F4050 X5.673 Y-17.871
G1 F3900 E36.42579
G1 F12000 Z1.3
G0 F3600 X5.838 Y-17.949 Z1.3
G0 X5.673 Y-3.871
G1 F12000 Z0.3
G1 F1950 E38.95233
G1 F4500 X5.673 Y-1.629 E39.05021
G1 X7.426 Y-.232 E39.14806
G1 X9.61 Y-.73 E39.24585
G1 X10.583 Y-2.75 E39.34372
G1 X9.61 Y-4.77 E39.4416
G1 X7.426 Y-5.268 E39.53939
G1 X6.148 Y-4.25 E39.61071
G0 F4050 X5.673 Y-3.871
G1 F3900 E37.11071
G1 F12000 Z1.3
G0 F3600 X5.838 Y-3.949 Z1.3
G0 X-10.327 Y-3.871
G1 F12000 Z0.3
G1 F1950 E39.63726
G1 F4500 X-10.327 Y-1.629 E39.73513
G1 X-8.574 Y-.232 E39.83298
G1 X-6.39 Y-.73 E39.93077
G1 X-5.417 Y-2.75 E40.02865
G1 X-6.39 Y-4.77 E40.12652
G1 X-8.574 Y-5.268 E40.22431
G1 X-9.852 Y-4.25 E40.29564
G0 F4050 X-10.327 Y-3.871
G1 F3900 E37.79564
G1 F12000 Z1.3
G0 F3600 X-10.162 Y-3.949 Z1.3
G0 X-10.327 Y-17.871
G1 F12000 Z0.3
G1 F1950 E40.32218
G1 F4500 X-10.327 Y-15.629 E40.42005
G1 X-8.574 Y-14.232 E40.5179
G1 X-6.39 Y-14.73 E40.61569
G1 X-5.417 Y-16.75 E40.71357
G1 X-6.39 Y-18.77 E40.81145
G1 X-8.574 Y-19.268 E40.90923
G1 X-9.852 Y-18.25 E40.98056
G0 F4050 X-10.327 Y-17.871
G1 F3900 E38.48056
G1 F12000 Z1.3
G0 F3600 X-10.162 Y-17.949 Z1.3
G0 X26.475 Y21.475
G1 F12000 Z0.3
G1 F1950 E41.0071
G1 F4500 X-26.475 Y21.475 E43.31858
G1 X-26.475 Y-21.475 E45.19351
G1 X26.475 Y-21.475 E47.50499
G1 X26.475 Y20.867 E49.35338
G0 F4050 X26.475 Y21.475
G0 F3600 X26.8 Y21.8
;TYPE:WALL-OUTER
G1 F1950 E49.37992
G1 F4500 X-26.8 Y21.8 E51.71978
G1 X-26.8 Y-21.8 E53.62309
G1 X26.8 Y-21.8 E55.96294
G1 X26.8 Y21.192 E57.83971
G0 F4050 X26.8 Y21.8
G0 F3600 X26.6 Y21.8
G1 F3900 E55.33971
G1 F12000 Z1.3
G0 F3600 X9.385 Y-1.012 Z1.3
G1 F12000 Z0.3
G1 F1950 E57.86625
G1 F4500 X10.222 Y-2.75 E57.95046
G1 X9.385 Y-4.488 E58.03467
G1 X7.506 Y-4.916 E58.1188
G1 X5.998 Y-3.714 E58.20298
G1 X5.998 Y-1.786 E58.28714
G1 X7.506 Y-.584 E58.37133
G1 X8.793 Y-.877 E58.42895
G0 F4050 X9.385 Y-1.012
G0 F3600 X9.471 Y-1.192
G1 F3900 E55.92895
G1 F12000 Z1.3
G0 F3600 X9.385 Y-15.012 Z1.3
G1 F12000 Z0.3
G1 F1950 E58.45549
G1 F4500 X10.222 Y-16.75 E58.5397
G1 X9.385 Y-18.488 E58.62391
G1 X7.506 Y-18.916 E58.70804
G1 X5.998 Y-17.714 E58.79222
G1 X5.998 Y-15.786 E58.87639
G1 X7.506 Y-14.584 E58.96057
G1 X8.793 Y-14.877 E59.01819
G0 F4050 X9.385 Y-15.012
G0 F3600 X9.471 Y-15.192
G1 F3900 E56.51819
G1 F12000 Z1.3
G0 F3600 X-6.615 Y-15.012 Z1.3
G1 F12000 Z0.3
G1 F1950 E59.04473
G1 F4500 X-5.778 Y-16.75 E59.12894
G1 X-6.615 Y-18.488 E59.21315
G1 X-8.494 Y-18.916 E59.29728
G1 X-10.002 Y-17.714 E59.38146
G1 X-10.002 Y-15.786 E59.46563
G1 X-8.494 Y-14.584 E59.54981
G1 X-7.207 Y-14.877 E59.60743
G0 F4050 X-6.615 Y-15.012
G0 F3600 X-6.529 Y-15.192
G1 F3900 E57.10743
G1 F12000 Z1.3
G0 F3600 X-6.615 Y-1.012 Z1.3
G1 F12000 Z0.3
G1 F1950 E59.63397
G1 F4500 X-5.778 Y-2.75 E59.71818
G1 X-6.615 Y-4.488 E59.80239
G1 X-8.494 Y-4.916 E59.88652
G1 X-10.002 Y-3.714 E59.9707
G1 X-10.002 Y-1.786 E60.05487
G1 X-8.494 Y-.584 E60.13905
G1 X-7.207 Y-.877 E60.19667
G0 F4050 X-6.615 Y-1.012
G0 F3600 X-6.529 Y-1.192
G0 X-6.281 Y-1.072
G0 X-6.324 Y-.647
G0 X-6.155 Y-.435
;TYPE:SKIN
G1 F1950 E60.22321
G1 F4500 X-5.04 Y-2.75 E60.33538
G1 X-6.155 Y-5.065 E60.44755
G1 X-8.658 Y-5.636 E60.55963
G1 X-10.667 Y-4.035 E60.67177
G1 X-10.667 Y-1.465 E60.78396
G1 X-8.658 Y0.136 E60.8961
G1 X-6.747 Y-.3 E60.98167
G0 F4050 X-6.155 Y-.435
G1 F3900 E58.48167
G1 F12000 Z1.3
G0 F3600 X-6.276 Y-.587 Z1.3
G0 X5.333 Y-1.465
G1 F12000 Z0.3
G1 F1950 E61.00821
G1 F4500 X7.342 Y0.136 E61.12035
G1 X9.845 Y-.435 E61.23243
G1 X10.96 Y-2.75 E61.3446
G1 X9.845 Y-5.065 E61.45677
G1 X7.342 Y-5.636 E61.56884
G1 X5.333 Y-4.035 E61.68098
G1 X5.333 Y-2.073 E61.76663
G0 F4050 X5.333 Y-1.465
G1 F3900 E59.26663
G1 F12000 Z1.3
G0 F3600 X5.508 Y-1.551 Z1.3
G0 X5.333 Y-15.465
G1 F12000 Z0.3
G1 F1950 E61.79317
G1 F4500 X7.342 Y-13.864 E61.90532
G1 X9.845 Y-14.435 E62.01739
G1 X10.96 Y-16.75 E62.12956
G1 X9.845 Y-19.065 E62.24173
G1 X7.342 Y-19.636 E62.3538
G1 X5.333 Y-18.035 E62.46594
G1 X5.333 Y-16.073 E62.55159
G0 F4050 X5.333 Y-15.465
G1 F3900 E60.05159
G1 F12000 Z1.3
G0 F3600 X5.508 Y-15.551 Z1.3
G0 X-8.658 Y-13.864
G1 F12000 Z0.3
G1 F1950 E62.57814
G1 F4500 X-6.155 Y-14.435 E62.69021
G1 X-5.04 Y-16.75 E62.80238
G1 X-6.155 Y-19.065 E62.91455
G1 X-8.658 Y-19.636 E63.02662
G1 X-10.667 Y-18.035 E63.13876
G1 X-10.667 Y-15.465 E63.25095
G1 X-9.133 Y-14.243 E63.33657
G0 F4050 X-8.658 Y-13.864
G1 F3900 E60.83657
G1 F12000 Z1.3
G0 F3600 X-8.614 Y-14.054 Z1.3
G0 X-26.135 Y-21.135
G1 F12000 Z0.3
G1 F1950 E63.36311
G1 F4500 X26.135 Y-21.135 E65.6449
G1 X26.135 Y21.135 E67.49015
G1 X-26.135 Y21.135 E69.77194
G1 X-26.135 Y-20.527 E71.59065
G0 F4050 X-26.135 Y-21.135
G0 F3600 X-26.135 Y-21.39
G0 X-26.299 Y-21.326
G0 X-26.39 Y20.55
G0 X-25.976 Y20.55
G1 F1950 E71.6172
G1 F4500 X-25.549 Y20.977 E71.64356
G0 F3600 X-25.054 Y20.977
G1 F4500 X-25.976 Y20.055 E71.70048
G0 F3600 X-25.976 Y19.56
G1 F4500 X-24.559 Y20.977 E71.78796
G0 F3600 X-24.064 Y20.977
G1 F4500 X-25.976 Y19.065 E71.906
G0 F3600 X-25.976 Y18.57
G1 F4500 X-23.569 Y20.977 E72.0546
G0 F3600 X-23.075 Y20.977
G1 F4500 X-25.976 Y18.075 E72.23372
G0 F3600 X-25.976 Y17.58
G1 F4500 X-22.58 Y20.977 E72.44341
G0 F3600 X-22.085 Y20.977
G1 F4500 X-25.976 Y17.085 E72.68365
G0 F3600 X-25.976 Y16.59
G1 F4500 X-21.59 Y20.977 E72.95446
G0 F3600 X-21.095 Y20.977
G1 F4500 X-25.976 Y16.095 E73.25582
G0 F3600 X-25.976 Y15.6
G1 F4500 X-20.6 Y20.977 E73.58775
G0 F3600 X-20.105 Y20.977
G1 F4500 X-25.976 Y15.105 E73.95023
G0 F3600 X-25.976 Y14.61
G1 F4500 X-19.61 Y20.977 E74.34327
G0 F3600 X-19.115 Y20.977
G1 F4500 X-25.976 Y14.115 E74.76687
G0 F3600 X-25.976 Y13.62
G1 F4500 X-18.62 Y20.977 E75.22103
G0 F3600 X-18.125 Y20.977
G1 F4500 X-25.976 Y13.126 E75.70572
G0 F3600 X-25.976 Y12.631
G1 F4500 X-17.63 Y20.977 E76.22097
G0 F3600 X-17.135 Y20.977
G1 F4500 X-25.976 Y12.136 E76.76678
G0 F3600 X-25.976 Y11.641
G1 F4500 X-16.64 Y20.977 E77.34315
G0 F3600 X-16.145 Y20.977
G1 F4500 X-25.976 Y11.146 E77.95007
G0 F3600 X-25.976 Y10.651
G1 F4500 X-15.65 Y20.977 E78.58756
G0 F3600 X-15.155 Y20.977
G1 F4500 X-25.976 Y10.156 E79.2556
G0 F3600 X-25.976 Y9.661
G1 F4500 X-14.66 Y20.977 E79.95421
G0 F3600 X-14.165 Y20.977
G1 F4500 X-25.976 Y9.166 E80.68337
G0 F3600 X-25.976 Y8.671
G1 F4500 X-13.67 Y20.977 E81.44309
G0 F3600 X-13.175 Y20.977
G1 F4500 X-25.976 Y8.176 E82.23338
G0 F3600 X-25.976 Y7.681
G1 F4500 X-12.68 Y20.977 E83.05422
G0 F3600 X-12.185 Y20.977
G1 F4500 X-25.976 Y7.186 E83.90562
G0 F3600 X-25.976 Y6.691
G1 F4500 X-11.69 Y20.977 E84.78758
G0 F3600 X-11.195 Y20.977
G1 F4500 X-25.976 Y6.196 E85.7001
G0 F3600 X-25.976 Y5.701
G1 F4500 X-10.7 Y20.977 E86.64318
G0 F3600 X-10.205 Y20.977
G1 F4500 X-25.976 Y5.206 E87.61681
G0 F3600 X-25.976 Y4.711
G1 F4500 X-9.71 Y20.977 E88.62101
G0 F3600 X-9.215 Y20.977
G1 F4500 X-25.976 Y4.216 E89.65577
G0 F3600 X-25.976 Y3.721
G1 F4500 X-8.72 Y20.977 E90.72108
G0 F3600 X-8.225 Y20.977
G1 F4500 X-25.976 Y3.226 E91.81696
G0 F3600 X-25.976 Y2.731
G1 F4500 X-7.73 Y20.977 E92.94339
G0 F3600 X-7.235 Y20.977
G1 F4500 X-25.976 Y2.236 E94.10039
G0 F3600 X-25.976 Y1.741
G1 F4500 X-6.74 Y20.977 E95.28794
G0 F3600 X-6.245 Y20.977
G1 F4500 X-25.976 Y1.246 E96.50605
G0 F3600 X-25.976 Y0.751
G1 F4500 X-5.75 Y20.977 E97.75473
G0 F3600 X-5.255 Y20.977
G1 F4500 X-25.976 Y0.256 E99.03396
G0 F3600 X-25.976 Y-.238
G1 F4500 X-4.76 Y20.977 E100.34372
G0 F3600 X-4.265 Y20.977
G1 F4500 X-25.976 Y-.733 E101.68404
G0 F3600 X-25.976 Y-1.228
G1 F4500 X-3.771 Y20.977 E103.05488
G0 F3600 X-3.276 Y20.977
G1 F4500 X-25.976 Y-1.723 E104.45629
G0 F3600 X-25.976 Y-2.218
G1 F4500 X-2.781 Y20.977 E105.88826
G0 F3600 X-2.286 Y20.977
G1 F4500 X-25.976 Y-2.713 E107.35078
G0 F3600 X-25.976 Y-3.208
G1 F4500 X-1.791 Y20.977 E108.84387
G0 F3600 X-1.296 Y20.977
G1 F4500 X-25.976 Y-3.703 E110.36751
G0 F3600 X-25.976 Y-4.198
G1 F4500 X-.801 Y20.977 E111.92171
G0 F3600 X-.306 Y20.977
G1 F4500 X-25.976 Y-4.693 E113.50648
G0 F3600 X-25.976 Y-5.188
G1 F4500 X0.188 Y20.977 E115.12177
G0 F3600 X0.683 Y20.977
G1 F4500 X-25.976 Y-5.683 E116.76762
G0 F3600 X-25.976 Y-6.177
G1 F4500 X1.178 Y20.977 E118.444
G0 F3600 X1.673 Y20.977
G1 F4500 X-25.976 Y-6.672 E120.15093
G0 F3600 X-25.976 Y-7.167
G1 F4500 X2.168 Y20.977 E121.88843
G0 F3600 X2.663 Y20.977
G1 F4500 X-25.976 Y-7.662 E123.65649
G0 F3600 X-25.976 Y-8.157
G1 F4500 X3.158 Y20.977 E125.4551
G0 F3600 X3.653 Y20.977
G1 F4500 X-25.976 Y-8.652 E127.28428
G0 F3600 X-25.976 Y-9.147
G1 F4500 X4.148 Y20.977 E129.14401
G0 F3600 X4.643 Y20.977
G1 F4500 X-25.976 Y-9.642 E131.03431
G0 F3600 X-25.976 Y-10.137
G1 F4500 X5.138 Y20.977 E132.95516
G0 F3600 X5.633 Y20.977
G1 F4500 X-25.976 Y-10.632 E134.90657
G0 F3600 X-25.976 Y-11.127
G1 F4500 X6.128 Y20.977 E136.88854
G0 F3600 X6.623 Y20.977
G1 F4500 X-25.976 Y-11.622 E138.90108
G0 F3600 X-25.976 Y-12.117
G1 F4500 X7.118 Y20.977 E140.94417
G0 F3600 X7.613 Y20.977
G1 F4500 X-25.976 Y-12.612 E143.01782
G0 F3600 X-25.976 Y-13.107
G1 F4500 X8.108 Y20.977 E145.12202
G0 F3600 X8.603 Y20.977
G1 F4500 X-25.976 Y-13.602 E147.25679
G0 F3600 X-25.976 Y-14.097
G1 F4500 X9.098 Y20.977 E149.42212
G0 F3600 X9.593 Y20.977
G1 F4500 X-25.976 Y-14.592 E151.61801
G0 F3600 X-25.976 Y-15.087
G1 F4500 X10.088 Y20.977 E153.84445
G0 F3600 X10.583 Y20.977
G1 F4500 X-25.976 Y-15.582 E156.10146
G0 F3600 X-25.976 Y-16.077
